X:1
T:FUGA I
T:FUGA I
T:BWV 846 (C) a 4 Voci 
T:J. S. Bach
T:L. Kopecny
C:J. S. Bach
Z:L. Kopecny
%%score { ( 1 2 ) | ( 3 4 ) }
L:1/8
Q:1/8=116
M:4/4
K:C
V:1 treble nm="Flügel" snm="Flgl."
V:2 treble 
V:3 bass 
V:4 bass 
V:1
"^Moderato e maestoso.." z8 | z4 z GAB | c3/2d/4c/4 Be A"_cresc."!<(!!>!d- d/e/d/c/ | %3
 B/G/A/B/ c/B/c/d/ e/d/e/^f/ gB | cA d/c/B/A/ G>!<)!!f!G F/E/F/G/ | A/G/A/B/ c4"_dimin."!>(! B2 | %6
 z!>)!!p! c"_cresc."!<(!de f3/2g/4f/4 ea | d!>!g- g/a/g/f/ e!>!a- a/b/a/g/ | f4 e^f g2- | %9
 g2 ^f2 g/=f/!f!e/!<)!d/ c/d/c/B/ | A/c/B/A/ z2 z/ c/B/A/ ^Ge | dc/B/ A/=G/A/B/ c/^F/^G/A/ BA/B/ | %12
 cfed-!f! d"_dimin."!>(!c/B/ TB>A | A2!>)! z2 z4 | z4!<(! z GAB | c3/2d/4c/4 Bc de f3/2g/4f/4 | %16
 e!<)!!f!adg- g/a/g/f/ ea | d_b ag/f/ g/f/g/e/ f/g/Pg/!>(!f/4g/4 | %18
"_dimin." a/^c/d/g/ Te>d!>)! d z z2 | z4 z2 z G | AB c3/2d/4c/4 BeAd- | %21
 d/e/d/c/ B/c/d/e/!f! f/g/a/g/ f/e/d/c/ |"_dimin."!>(! B2 cd G c2 B!>)! |!p! c2 B_B A d2!p! c | %24
 de f2- f/a/g/f/ e/f/e/d/ |!p! c4 z/ G/4A/4=B/c/ d/e/f- | %26
!>(! f/4c/4d/4e/4f/g/ a>!>)!b !fermata![egc']4 |] %27
V:2
 z!p! C"_sempre legato"DE F3/2G/4F/4 EA | D!>!G- G/A/G/F/ E/F/E/D/ C/D/C/B,/ | A,^F G2- G^F/E/ FD | %3
 G=FED C z2 G- | G=F/E/ F2- F/F/E D2 | CF z/ G/F/E/ FD G2- | G2 z2 z4 | z8 | z GAB c3/2d/4c/4 Be | %9
 Ad- d/e/d/c/ B z2 D | E^F G3/2A/4G/4 ^FBE!>!A- | A/B/A/^G/ ^F=F ED- D/E/^F/^G/ | %12
 A/^G/A/B/ ^G/^F/G/!>!A/ B z z2 | z!p! CDE F3/2"_cresc."G/4F/4 EA | DG- G/A/G/F/ EE^FG- | %15
 G^F^GA- A=GA=B | c3/2d/4c/4 Be Ad- d/e/d/c/ | Bg^cd e^cde | A z2 E ^FG A3/2B/4A/4 | %19
 Gc^FB- B/c/B/A/ G/^F/E/D/ | E2 D2- D/A/G/=F/ E/G/F/A/ | G2- G/A/_B c2 dG | G3 F- FE D2 | %23
 E A2 G- GFGA | _B3/2c/4B/4 Ad Gc- c/d/c/_B/ | A/_B/A/G/ F/G/F/E/ D2- D>G | A2 z/ f/!pp!d z4 |] %27
V:3
 z8 | z8 | z8 | z G,A,B, C3/2D/4C/4 B,E | A,!>!D- D/E/D/C/ B,!f!C-C_B, | A,DG,C z/ A,/B,/C/ D2 | %6
 G,2 z G, A,B, C3/2D/4C/4 | B,EA,!>!D- D/E/D/=C/ =B,!>!E- | E2 D2 C/B,/C/A,/ E/D/C/B,/ | %9
 C/A,/B,/C/ D/C/B,/A,/ G,2 z2 | z8 | z E,^F,^G, A,3/2B,/4A,/4 ^G,C | %12
 ^F,!>!B,- B,/C/B,/A,/ ^G, A,2 G, | A,2 z =G, A,B, C3/2D/4C/4 | B,EA,D- DG, D2 | CA, E2 D z z2 | %16
 z A,B,^C D3/2E/4D/4 =CF | B,E- E/F/E/D/ ^C z z2 | z A,=B,^C!p! D3/2E/4D/4 =C^F | %19
 B,E- E/^F/E/D/ C4- | C/D/C/B,/ A,/G,/A,/^F,/ G,"^cresc."B,CD | E3/2F/4E/4 DG CF- F/G/F/E/ | %22
 D2 ED- DG, G,2- | G,C,D,E, F,3/2G,/4F,/4 E,A, | %24
!<(! D,G,- G,/A,/G,/F,/!<)! E,/!>(!D,/E,/F,/ G,/A,/_B,/G,/!>)! | A,/E,/F,/G,/ A,/=B,/C/A,/ B,4 | %26
 C8 |] %27
V:4
 x8 | x8 | x8 | x8 | z4 z C,D,E, | F,3/2G,/4F,/4 E,A, D,!>!G,- G,/A,/G,/F,/ | %6
 E,/F,/E,/D,/ C,/D,/C,/B,,/ A,,D,A,^F, | G,/A,/_B,/G,/ ^C,D, A,2 E,2 | A,/B,/C/D/ C/B,/A,/G,/ z4 | %9
 z4 z!f! G,,A,,B,, | C,3/2D,/4C,/4 B,,E, A,,!>!D,- D,/E,/D,/C,/ | B,, !^!E,2 D, C, =F,2 E,- | %12
 E, D,2 E, ^F,E,/D,/ E,2 | x8 | z G,,A,,B,, C,3/2D,/4C,/4 B,,E, | %15
 A,,D,- D,/E,/D,/C,/ B,,_B,,A,,G,, | A,,^F,G,E, D,2 E,=F, | %17
 G,3/2A,/4G,/4 F,_B, E,!>!A,- A,/B,/A,/G,/ | F,/E,/F,/D,/ G,A, D,4- | %19
 D,/E,/D,/C,/ B,,/A,,/G,,/^F,,/ E,,E,^F,G,- | G,A,/G,/ ^F,D, G,4- | G,4 A,2 =B,C | %22
 F,/A,/G,/F,/ E,/D,/C,/B,,/ C,/D,/E,/F,/ G,G,, | C,8- | C,8- | C,8- | C,8 |] %27

